src/cmd/32/tabledesign.svg

<svg viewBox="0 0 32 32" xmlns="http://www.w3.org/2000/svg"><path d="m6 4v10.945312l1 .541016v-2.486328h5v3h-4.0527344l1.8457032 1h2.2070312v1.195312l1 .541016v-1.736328h6v3h-3.667969l1.845703 1h1.822266v.986328l1 .541016v-1.527344h5v3h-2.283203l1.847656 1h.435547 1v-20-1h-19zm1 1h5v3h-5zm6 0h6v3h-6zm7 0h5v3h-5zm-13 4h5v3h-5zm6 0h6v3h-6zm7 0h5v3h-5zm-7 4h6v3h-6zm7 0h5v3h-5zm-16 2v1.136719 10.863281 1h21.900391 2.097656zm1 1.679688 19.054688 10.320312h-19.054688zm15 .320312h5v3h-5z" fill="#232629"/></svg>

<?xml version="1.0" encoding="UTF-8" standalone="no"?>
<svg
   xmlns:dc="http://purl.org/dc/elements/1.1/"
   xmlns:cc="http://creativecommons.org/ns#"
   xmlns:rdf="http://www.w3.org/1999/02/22-rdf-syntax-ns#"
   xmlns:svg="http://www.w3.org/2000/svg"
   xmlns="http://www.w3.org/2000/svg"
   xmlns:sodipodi="http://sodipodi.sourceforge.net/DTD/sodipodi-0.dtd"
   xmlns:inkscape="http://www.inkscape.org/namespaces/inkscape"
   viewBox="0 0 32 32"
   version="1.1"
   id="svg4"
   sodipodi:docname="tabledesign.svg"
   inkscape:version="0.92.4 (5da689c313, 2019-01-14)">
  <metadata
     id="metadata10">
    <rdf:RDF>
      <cc:Work
         rdf:about="">
        <dc:format>image/svg+xml</dc:format>
        <dc:type
           rdf:resource="http://purl.org/dc/dcmitype/StillImage" />
      </cc:Work>
    </rdf:RDF>
  </metadata>
  <defs
     id="defs8" />
  <sodipodi:namedview
     pagecolor="#ffffff"
     bordercolor="#666666"
     borderopacity="1"
     objecttolerance="10"
     gridtolerance="10"
     guidetolerance="10"
     inkscape:pageopacity="0"
     inkscape:pageshadow="2"
     inkscape:window-width="1920"
     inkscape:window-height="1011"
     id="namedview6"
     showgrid="true"
     inkscape:zoom="20.85965"
     inkscape:cx="15.61763"
     inkscape:cy="17.677994"
     inkscape:window-x="1920"
     inkscape:window-y="32"
     inkscape:window-maximized="1"
     inkscape:current-layer="svg4">
    <inkscape:grid
       type="xygrid"
       id="grid817" />
  </sodipodi:namedview>
  <path
     d="m 6,6 v 8.945312 l 1,0.541016 V 13 h 5 v 3 H 7.9472656 l 1.8457032,1 H 12 v 1.195312 l 1,0.541016 V 17 h 6 v 3 h -3.667969 l 1.845703,1 H 19 v 0.986328 l 1,0.541016 V 21 h 5 v 2 c 0,1 -1,1 -2.283203,1 l 1.847656,1 C 25,25 26,25 26,23 V 6 C 26,4 25,4 23,4 H 9 C 7,4 6,4 6,6 Z M 9,5 h 3 V 8 H 7 V 6 C 7,5 8,5 9,5 Z m 4,0 h 6 v 3 h -6 z m 7,0 h 3 c 1,0 2,0 2,1 V 8 H 20 Z M 7,9 h 5 v 3 H 7 Z m 6,0 h 6 v 3 h -6 z m 7,0 h 5 v 3 h -5 z m -7,4 h 6 v 3 h -6 z m 7,0 h 5 v 3 H 20 Z M 4,15 V 16.136719 27 28 h 21.900391 2.097656 z M 5,16.679688 24.054688,27 H 5 Z M 20,17 h 5 v 3 h -5 z"
     id="path2"
     inkscape:connector-curvature="0"
     style="fill:#232629"
     sodipodi:nodetypes="ccccccccccccccccccccccccccccccccccccccccccccccccccccccccccccccccccccccccccccccccccccccc" />
</svg>
